X: 08
T: The Capricious Lovers
R: jig
M: 6/8
L: 1/8
Z: 2010,2014 John Chambers <jc:trillian.mit.edu>
B: John Johnson ed. "Twenty Four Country Dances", p.76 London 1766
K: D
A |\
ded ded | ABA AFE | DED Dgf | Tf3 e2e |\
ecd Aef | ecd Ace | a^ga Ba^g | a3 A2 :|
|: e |\
cec ABc | dfd Bcd | ege faf | f3 e2A |\
BcB ged | cdc a2f | efd Adc | d3 D2 :|
% - - - - - - - - - - - - - - - - - - - - - - - - -
%%begintext align
%% Hey contray sides .| then on your own
%% sides :| cross over half figure :|. right
%% & left :|:
%%endtext
% - - - - - - - - - - - - - - - - - - - - - - - - -
